X:1
T:Abinger, 12.10.12.4
T:Abinger, 12.10.12.4
T:Henry Erskine Allon (1864-1897)
T:Public Domain Courtesy of the Cyber Hymnal™
C:Henry Erskine Allon (1864-1897)
Z:Public Domain
Z:Courtesy of the Cyber Hymnal™
%%score ( 1 2 ) ( 3 4 )
L:1/8
Q:1/4=115
M:4/4
K:F
V:1 treble 
V:2 treble 
V:3 bass 
V:4 bass 
V:1
 F4 D2 E2 | G3 F F4 | [FA]4 F2 [EG]2 | [EB]3 [FA] [FA]4 | [Fc]4 F2 [EG]2 | [FA]8 | c4 A2 B2 | %7
 d3 c c4 | [Fc]4 [FA]2 B2 | [Ad]3 [Ac] [Ac]4 | [GB]4 [DA]2 [EG]2 | [FA]2 [FB]2 [Fc]2 [Fd]2 | %12
 c4 [DB]2 [EG]2 | F8 |] %14
V:2
 F4 D2 E2 | G3 F F4 | x4 F2 x2 | x8 | x4 F2 x2 | x8 | c4 A2 B2 | d3 c c4 | x6 B2 | x8 | x8 | x8 | %12
 (F2 D2) x4 | F8 |] %14
V:3
 F,4 D,2 E,2 | G,3 F, F,4 | [F,C]4 [D,C]2 [C,C]2 | [F,G,]3 [F,C] [F,C]4 | [A,C]4 [B,D]2 [G,B,]2 | %5
 [F,C]8 | C4 A,2 B,2 | D3 C C4 | [F,A,]4 [F,C]2 [F,D]2 | [F,F]3 [^F,_E] [F,E]4 | %10
 [G,D]4 [G,C]2 [G,B,]2 | [F,C]2 [D,B,]2 [C,A,]2 [B,,B,]2 | (A,2 F,2) (G,2 B,2) | [F,A,]8 |] %14
V:4
 F,4 D,2 E,2 | G,3 F, F,4 | x8 | x8 | x8 | x8 | C4 A,2 B,2 | D3 C C4 | x8 | x8 | x8 | x8 | %12
 C,4 C,4 | x8 |] %14

